remix/Design/crop-line.svg

<svg viewBox="0 0 24 24" xmlns="http://www.w3.org/2000/svg"><path fill="none" d="M0 0h24v24H0Z"/><path d="M15 17v2H6v0c-.56 0-1-.45-1-1V7H2V5h3V2h2v15h8Zm2 5V7H9V5h9v0c.55 0 1 .44 1 1v11h3v2h-3v3h-2Z"/></svg>

<svg viewBox="0 0 24 24" fill="currentColor" xmlns="http://www.w3.org/2000/svg"><path d="M15 17V19H6C5.44772 19 5 18.5523 5 18V7H2V5H5V2H7V17H15ZM17 22V7H9V5H18C18.5523 5 19 5.44772 19 6V17H22V19H19V22H17Z"/></svg>
